svg/relation_only_one_to_zero_or_many.svg

<svg xmlns="http://www.w3.org/2000/svg" viewBox="0 0 24 24"><path d="m21 13-2 2h-.21a2.5 2.5 0 0 0-4.58 0H13V7H8V5H6v2H5V5H3v2H2v2h1v2h2V9h1v2h2V9h3v8h3.21a2.5 2.5 0 0 0 4.58 0H19l2 2h1v-6m-5.5 4a1 1 0 1 1 1-1 1 1 0 0 1-1 1"/></svg>

<?xml version="1.0" encoding="UTF-8"?><!DOCTYPE svg PUBLIC "-//W3C//DTD SVG 1.1//EN" "http://www.w3.org/Graphics/SVG/1.1/DTD/svg11.dtd"><svg xmlns="http://www.w3.org/2000/svg" xmlns:xlink="http://www.w3.org/1999/xlink" version="1.1" id="mdi-relation-only-one-to-zero-or-many" width="24" height="24" viewBox="0 0 24 24"><path d="M21 13L19 15H18.79A2.5 2.5 0 0 0 14.21 15H13V7H8V5H6V7H5V5H3V7H2V9H3V11H5V9H6V11H8V9H11V17H14.21A2.5 2.5 0 0 0 18.79 17H19L21 19H22V13M16.5 17A1 1 0 1 1 17.5 16A1 1 0 0 1 16.5 17Z" /></svg>
